X: 269
T: Munster Buttermilk
M: 6/8
L: 1/8
R: jig
K: Gmaj
d|gab age|d2B BAB |d~B2 BAB|dBG GBd|
gab age|d2B BAB|dBG GAB|AGF G2:|
e|d2e g2a|~b2b bag| aba age|g2g age|
d2e g2a|~b2b bag|age deg|agf g2:|


